assets/pause-fill.svg

<svg xmlns="http://www.w3.org/2000/svg" fill="none" viewBox="0 0 28 28">
  <path fill="#2A2238" fill-rule="evenodd" d="M28 14c0 7.732-6.268 14-14 14-7.73199 0-14-6.268-14-14C0 6.26801 6.26801 0 14 0c7.732 0 14 6.26801 14 14ZM11 5.25c.4142 0 .75.33579.75.75v15c0 .4142-.3358.75-.75.75s-.75-.3358-.75-.75V6c0-.41421.3358-.75.75-.75Zm6.75.75c0-.41421-.3358-.75-.75-.75s-.75.33579-.75.75v15c0 .4142.3358.75.75.75s.75-.3358.75-.75V6Z" clip-rule="evenodd"/>
</svg>

<svg width="28" height="28" viewBox="0 0 28 28" fill="none" xmlns="http://www.w3.org/2000/svg">
<path fill-rule="evenodd" clip-rule="evenodd" d="M28 14C28 21.732 21.732 28 14 28C6.26801 28 0 21.732 0 14C0 6.26801 6.26801 0 14 0C21.732 0 28 6.26801 28 14ZM11 5.25C11.4142 5.25 11.75 5.58579 11.75 6V21C11.75 21.4142 11.4142 21.75 11 21.75C10.5858 21.75 10.25 21.4142 10.25 21V6C10.25 5.58579 10.5858 5.25 11 5.25ZM17.75 6C17.75 5.58579 17.4142 5.25 17 5.25C16.5858 5.25 16.25 5.58579 16.25 6V21C16.25 21.4142 16.5858 21.75 17 21.75C17.4142 21.75 17.75 21.4142 17.75 21V6Z" fill="#2A2238"/>
</svg>
